X:414
T:Brig O'Feugh, The 
C:Joe Buchanan's Scottish Tome - Page 378.0
I:378 0
C:P/M Donald McLeod, MBE
R:March
Z:Carl Allison
L:1/8
M:2/4
K:D
a/>g/ | f/<a/d/>f/ e/>d/e/<f/ | AA/>d/ BA | df/>a/ e/>a/f/<a/ | f/>e/d/<f/ ea/>g/ |
f/<a/d/>f/ e/>d/e/<f/ | AA/>d/ Bd/>B/ | AB/>d/ A/>c/c/<e/ | d2 d :|
g | ae/>f/ g/>e/f/<a/ | A/>B/d/>e/ f/<a/f/>d/ | g/>f/e/>g/ f/>e/d/>f/ | e/>d/c/>e/ eg |
ad/>e/ f/>d/f/<a/ | A/>B/d/>e/ f/>a/f/>d/ | B/<A/B/>d/ A/>c/c/<e/ | d2 d :|
f | AB/>d/ d/>A/B/<d/ | e/<f/e/>d/ BA/>B/ | df/>a/ d/>a/f/<a/ | f/>e/d/<f/ ef |
AB/>d/ d/>A/B/<d/ | e/<f/e/>d/ Bd/>B/ | AB/>d/ A/>c/c/<e/ | d2 d :|
f/g/ | f/<a/d/<f/ a/>d/f/<a/ | f/>d/a/>d/ fA/>B/ | df/>a/ d/>a/f/<a/ | f/>e/d/<f/ ef/>g/ |
f/<a/d/>f/ a/>d/f/<a/ | f/>d/a/>d/ Bd/>B/ | AB/>d/ A/>c/c/<e/ | d2 df/>g/ |
f/<a/d/>f/ a/>d/f/<a/ | f/>d/a/>d/ fA/>B/ | df/>a/ d/>a/f/<a/ | f/>e/d/<f/ ef |
AB/>d/ d/>A/B/<d/ | e/>f/e/>d/ Bd/>B/ | AB/>d/ A/>c/c/<e/ | d2 d |]

